!!!!SEGMENT: pl-wn--sd-xvi-qu-273--123_gomolka-mikolaj--boze-ktory-mieszkasz-nad-wszytkimi-nieby.krn
!!!cenid: 15xx:328
!!!COM: Gomółka, Mikołaj
!!!COM-rismid: pe30013343
!!!CDT: ~1535->1591/04/30
!!!CNT: Polish
!!!GTL: Melodiae na psalterz polski
!!!OTL: CXXIII. Boże, który mieszkasz nad wszytkimi nieby
!!!PDT: 1580
!!!AGN: Sacred
!!!SMS-siglum: PL-Wn
!!!SMS-shelfmark: SD XVI.Qu.273
!!!SMS-shelfwork: 123 G
!!!NIFC-rismid:
!!!ONB-nifc: Melodiae na psalterz polski 
**kern	**text	**kern	**text	**kern	**text	**kern	**text
*part4	*part4	*part3	*part3	*part2	*part2	*part1	*part1
*staff4	*staff4	*staff3	*staff3	*staff2	*staff2	*staff1	*staff1
*clefF3	*	*clefC3	*	*clefC1	*	*clefG2	*
*k[b-]	*	*k[b-]	*	*k[b-]	*	*k[b-]	*
*g:	*	*g:	*	*g:	*	*g:	*
*M4/2	*	*M4/2	*	*M4/2	*	*M4/2	*
*met(C|)	*	*met(C|)	*	*met(C|)	*	*met(C|)	*
=1	=1	=1	=1	=1	=1	=1	=1
*>A	*	*	*	*	*	*	*
1G	Bo-	2.g	Bo	1b-	Bo-	1dd	Bo-
.	.	4f	.	.	.	.	.
2A	-ʒ̇e/	2e	ʒ̇e/	2a	-ʒ̇e	2cc	-ʒ̇e
2F#X/	ťtó-	2.d	ťtó	2a	ťtó-	4dd	ťtó-
.	.	.	.	.	.	4cc	.
=2-	=2	=2	=2	=2	=2	=2	=2
2G	-ry	.	.	2g/	-ry	4b-/	ry
.	.	4c/	ry	.	.	4a	.
2G	mieʃ-	4B-	mieʃ	2g/	mieʃ-	2b-/	mieʃ-
.	.	4c/	.	.	.	.	.
2D	-ťaʃᴣ	4d	ťaʃᴣ	4f	-ťaʃᴣ	2a	-ťaʃᴣ
.	.	4e	.	4g/	.	.	.
2d	nád	2f	nád	2b-	nád	2ff	nád
=3-	=3	=3	=3	=3	=3	=3	=3
2c	wʃᴣyt-	2e	wʃᴣyt-	2cc	wʃᴣyt-	2.gg	wʃᴣyt-
2B-	-ťié-	2d	-ťié-	2dd	-ťié-	.	.
.	.	.	.	.	.	4ff	-ťié-
2c	-mi	2g	-mi	2.cc	-mi	2ee-X	-mi
2c	nie-	2g	nie-	.	.	2ee-	nie-
.	.	.	.	4b-	nie-	.	.
=4-	=4	=4	=4	=4	=4	=4	=4
2d	-by/	2f	-by/	2a	-by/	2dd	-by/
2d	pró-	2a	pró-	2dd	pró-	2ff	pró-
2d	-ʒ̇en	2f	-ʒ̇en	2.dd	-ʒ̇en	2ff	-ʒ̇en
2B-	y	2f	y	.	.	2ff	y
.	.	.	.	4cc	y	.	.
=5-	=5	=5	=5	=5	=5	=5	=5
1B-	troʃť	2.f	troʃť	2.b-	troʃť	1dd	troʃť
.	.	4d	.	4a	.	.	.
1c	ludӡ-	4e	ludӡ	4g	ludӡ	2.cc	ludӡ
.	.	2f	.	2a	.	.	.
.	.	4e	.	4g	.	4b-/	.
!!LO:PB:g=original
=6-	=6	=6	=6	=6	=6	=6	=6
2F/	-ťich/	2f	ťich/	2a	ťich/	2a	ťich/
2G	y	2d	y	4g	y	2b-/	y
.	.	.	.	4a	.	.	.
2.E	wʃᴣel	2.g	wʃᴣel-	2.b-	wʃᴣel-	2.ee	wʃᴣel-
4BB-	ťiéy	4f	-ťiéy	4b-	-ťiéy	4dd	-ťiéy
=7-	=7	=7	=7	=7	=7	=7	=7
2F/	pot-	2f	pot-	4a	pot-	4cc	pot-
.	.	.	.	2b-	-rӡe	2dd	-rӡe
2F/	-rӡe-	2f	-rӡe-	.	.	.	.
.	.	.	.	4a	.	4cc	.
2BB-	-by:	2d	-by:	2b-	by:	2dd	by:
2D	Do	2.d	Do	2f	Do	2a	Do
=8-	=8	=8	=8	=8	=8	=8	=8
2G	ćie-	.	.	2g	ćie-	2b-/	ćie-
.	.	4e	ćie-	.	.	.	.
2F	-bie	2f	-bie	2a	-bie	2cc	-bie
2.B-	ia	1f	iawӡno-	4b-	ia	2.dd	ia
.	.	.	.	4cc	.	.	.
.	.	.	.	2dd	wӡno-	.	.
4c	wӡno-	.	.	.	.	4ee	wӡno-
=9-	=9	=9	=9	=9	=9	=9	=9
2d	-ʃᴣe	4d	-ʃᴣe	4a	-ʃᴣe	2ff	-ʃᴣe
.	.	4e	.	2a	ʃmęt	.	.
2B-	ʃmęt-	4f	ʃmęt	.	.	2dd	ʃmęt-
.	.	4d	.	4g	.	.	.
1A	-né	4e	né	1a	né	2.cc	-né
.	.	4d	.	.	.	.	.
.	.	4e	.	.	.	.	.
.	.	4f	.	.	.	4dd	.
=10-	=10	=10	=10	=10	=10	=10	=10
2G	o-	4g	o	2b-	o	4ee	o
.	.	4f	.	.	.	4dd	.
2B-	-cӡy	4e	cӡy	2g	cӡy	1dd	cӡy
.	.	4d	.	.	.	.	.
1A	ʃwo-	1e	ʃwo-	2.a	ʃwo	.	.
.	.	.	.	.	.	2cc	ʃwo-
.	.	.	.	4g/	.	.	.
=11-	=11	=11	=11	=11	=11	=11	=11
1D	-ie/	2d	-ie/	2f	ie/	1dd	-ie/
.	.	2f	.	2a	.	.	.
!!LO:PB:g=original
1G	O	2.g	O	2.b-	O	1dd	O
.	.	4f	.	4a	.	.	.
=12-	=12	=12	=12	=12-	=12	=12	=12
1C	pá-	4e	pá	4g/	pá	2.cc	pá
.	.	2f	.	4f	.	.	.
.	.	.	.	2g/	.	.	.
.	.	4e	.	.	.	4b-/	.
2F/	-nie/	2f	nie/	2a	nie/	2a	nie/
1BB-	ná	1d	ná	1f	ná	1b-	ná
=13-	=13	=13	=13	=13-	=13	=13	=13
.	.	.	.	.	.	.	.
2GG	dʒ́ie-	2d	dʒ́ie-	2g/	dʒ́ie-	2b-/	dʒ́ie-
2D	-io/	2d	-io/	2f	-io/	2a	-io/
1D	y	2f	y	1a	y	1dd	y
=14-	=14	=14	=14	=14-	=14	=14	=14
.	.	2.f	.	.	.	.	.
2D	ӡbá-	.	.	2a	ӡbá-	2dd	ӡbá-
.	.	4e	ӡbá	.	.	.	.
1G	-wie-	4d	wie	1g	-wie-	2.b-/	-wie
.	.	4c	.	.	.	.	.
.	.	2d	.	.	.	.	.
.	.	.	.	.	.	4cc	.
=15-	=15	=15	=15	=15-	=15	=15	=15
1G	-nié	2.B-	nié	2.g/	-nié	1dd	nié
.	.	8AL	.	8fL	.	.	.
.	.	8GJ	.	8eJ	.	.	.
1D	mo-	4A	mo	4f	mo	2.dd	mo
.	.	2B-	.	4g	.	.	.
.	.	.	.	2f	.	.	.
.	.	4A	.	.	.	4cc	.
=16-	=16	=16	=16	=16-	=16	=16	=16
!'ogonek po lewej stronie'	!	!	!	!	!	!	!
!!!LO:N:vis=00
0GG/	-ie.	0G/	ie.	0g	ie.	0b-	ie.
=	=	=	=	=	=	=	=
*-	*-	*-	*-	*-	*-	*-	*-
!!!RDF**kern: l = terminal long
!!!system-decoration: s1,s2,s3,s4
!!!ENC:Anna Matuszewska
!!!END:2020-02-23
!!!URL-scan: https://polona.pl/item/melodiae-na-psalterz-polski,Nzk3MTM4ODQ/287 Scan on Polona
!!!IIIF: https://polona.pl/iiif/item/Nzk3MTM4ODQ/manifest.json
